X:5724
T:Saddly the Pony
O:england
B:Joyce, P. W.; "Old Irish Folk Music and Songs"
R:song air
H:Not so quick as jig time
H:Taken down about sixty years ago from the whistling of Joe MArtin of
H:Kilfinane Co. Limerick.
L:1/8
M:6/8
K:G
E/F/|G3 GAB|ABA AGA|B2 A Bcd|e3 e2 f|
g2 e fed|e2 d B2 A|G2 B AGF|E3 E2||e/f/|
g2 e fed|e2 d B2 f|g2 e f<af|d3 def|
g2 e fed|e2 d B2 A|G2 B AGF|E3 E2||


